X:283
M:4/4
L:1/4
K:G
d | c B A B/c/ | B3 B | A D E E | D3 D | E F G B | A A B !sintro!B | c B A A | G3 !eintro!|]
